icon/fa/face-grin-tongue-squint.svg

<svg xmlns="http://www.w3.org/2000/svg" viewBox="0 0 512 512"><!--! Font Awesome Free 6.1.2 by @fontawesome - https://fontawesome.com License - https://fontawesome.com/license/free (Icons: CC BY 4.0, Fonts: SIL OFL 1.1, Code: MIT License) Copyright 2022 Fonticons, Inc.--><path d="M256 0c141.4 0 256 114.6 256 256 0 112.9-73.1 208.7-174.5 242.8C346.7 484 352 466.6 352 448v-46.9c24.3-17.6 43.6-41.6 55.4-69.6 5-11.8-7-22.5-19.3-18.7-39.7 12.1-84.4 19-131.8 19-47.4 0-92.2-6.9-131.8-19-12.3-3.8-24.3 6.9-19.3 18.7 11.7 27.8 29.9 51.6 54.8 69.2V448c0 18.6 5.3 36 14.5 50.8C73.07 464.7 0 368.9 0 256 0 114.6 114.6 0 256 0zM118.8 148.8l36 43.2-36 43.2c-2.7 2.2-2.8 4.9-2.8 7.7 0 8.9 9.6 14.7 17.5 10.4l89.9-47.9c10.7-5.7 10.7-21.1 0-26.8l-89.9-47.9c-7.9-4.3-17.5 1.5-17.5 10.4 0 2.8.1 5.5 2.8 7.7zm169.8 29.8c-10.7 5.7-10.7 21.1 0 26.8l89.9 47.9c7.9 4.3 17.5-1.5 17.5-10.4 0-2.8-1-5.5-2.8-7.7l-36-43.2 36-43.2c1.8-2.2 2.8-4.9 2.8-7.7 0-8.9-9.6-14.7-17.5-10.4l-89.9 47.9zM256 512c-35.3 0-64-28.7-64-64v-45.4c0-14.7 11.9-26.6 26.6-26.6h2c11.3 0 21.1 7.9 23.6 18.9 2.8 12.6 19.9 12.6 23.6 0 2.5-11 12.3-18.9 23.6-18.9h2c14.7 0 26.6 11.9 26.6 26.6V448c0 35.3-28.7 64-64 64z"/></svg>

<svg xmlns="http://www.w3.org/2000/svg" viewBox="0 0 512 512" height="1em" width="1em">
<!--! Font Awesome Free 6.1.2 by @fontawesome - https://fontawesome.com License - https://fontawesome.com/license/free (Icons: CC BY 4.0, Fonts: SIL OFL 1.1, Code: MIT License) Copyright 2022 Fonticons, Inc.-->
  <path d="M256 0C397.4 0 512 114.6 512 256C512 368.9 438.9 464.7 337.5 498.8C346.7 484 352 466.6 352 448V401.1C376.3 383.5 395.6 359.5 407.4 331.5C412.4 319.7 400.4 309 388.1 312.8C348.4 324.9 303.7 331.8 256.3 331.8C208.9 331.8 164.1 324.9 124.5 312.8C112.2 309 100.2 319.7 105.2 331.5C116.9 359.3 135.1 383.1 160 400.7V448C160 466.6 165.3 484 174.5 498.8C73.07 464.7 0 368.9 0 256C0 114.6 114.6 .0003 256 .0003L256 0zM118.8 148.8L154.8 192L118.8 235.2C116.1 237.4 116 240.1 116 242.9C116 251.8 125.6 257.6 133.5 253.3L223.4 205.4C234.1 199.7 234.1 184.3 223.4 178.6L133.5 130.7C125.6 126.4 116 132.2 116 141.1C116 143.9 116.1 146.6 118.8 148.8V148.8zM288.6 178.6C277.9 184.3 277.9 199.7 288.6 205.4L378.5 253.3C386.4 257.6 396 251.8 396 242.9C396 240.1 395 237.4 393.2 235.2L357.2 192L393.2 148.8C395 146.6 396 143.9 396 141.1C396 132.2 386.4 126.4 378.5 130.7L288.6 178.6zM256 512C220.7 512 192 483.3 192 448V402.6C192 387.9 203.9 376 218.6 376H220.6C231.9 376 241.7 383.9 244.2 394.9C247 407.5 264.1 407.5 267.8 394.9C270.3 383.9 280.1 376 291.4 376H293.4C308.1 376 320 387.9 320 402.6V448C320 483.3 291.3 512 256 512V512z"/>
</svg>
